!!!COM: Sontonga, Enoch Mankayi (et al)
!!!CDT: 1860-1904
!!!OTL: National Anthem, South Africa
!!!ENC: Davis, Matthew J.
!!Vocal Line Only
**kern
*clefG2
*k[f#]
*X:
*M4/4
=1-
1r
=2
1r
==3
8g
8f#
8g
8a
4b
4b
=4
4a
4a
2g
=5
8b
8b
8a
8b
4cc
4cc
=6
8b
8b
4b
2a
=7
8g
8f#
8g
8a
4b
4b
=8
4a
4cc
2b
=9
2a
2g
=10
8f#
8g
4a
2g
=11
2a
4.g
8g
=12
8f#
8g
4a
2g
=13
8g
8g
8g
8a
4b
8b
8b
=14
8b
8b
8cc
8b
2a
=15
8g
8g
8g
8a
8b
8b
8cc
8a
=16
*M2/4
4g
4f#
=17
*M4/4
8g
8g
8g
8b
4d
4b
=18
[2a
8a]
8cc
8b
8a
=19
4g
4b
4cc
4a
=20
2g
4a
4cc
=21
4.b
8b
4cc
4a
=22
4.g
8g
4f#
4a
=23
4.g
8a
4a
4a
=24
2.a
8.A
16A
==25
*k[f#c#]
4d
4d
4f#
4f#
=26
2a
4a
8g
8f#
=27
4e
8g
8e
4d
4c#
=28
2.d
8.A
16A
=29
4d
4d
4f#
4f#
=30
2a
4a
8a
8b
=31
4cc#
8b
8a
4b
4e
=32
2.a
8f#
8a
=33
4b
4b
4f#
4f#
=34
2a
4a
8a
8g
=35
4f#
4f#
4b
4g
=36
2.e
8.d
16f#
=37
4a
4a
4a
4dd
=38
2dd
4b
8.a
16g
=39
4f#
4a
4b
4cc#
=40
1dd
==|!
*-
